X: 6062
T: Capn's Dream, The
R: mazurka
M: 3/4
K: Dminor
A,|:"Dm"D2 E FF G|"A"A Ad A2 G|"Dm"F (ED) (DE)F|"A" E2 A A,2 A,|
"Dm" D2 E FF G|"A" A Ad A2 G|("Dm"F E)D "A"E^C A,|1 "Dm"D3 D2 A,:|2 "Dm"D3D2 E||
"F"F2 F/F//F//(F G)A|("C"GF) E(E F)G|("Dm"FE) D(D E)F|"A"E2 A A,2 E|
"F"F2 F/F//F//(F G)A|("C"BA) GG (AB)|"Dm"AG F("A"G E) ^C|"Dm"D3 D2 A|
|:"Gm"B3/2 B//B//B (Bc)B|"Dm"A3/2 A//A//A (AB)A|"Gm"G3/2 G//G//G (GF)G|"A"A2 F D2 A|
"Gm"(BA)B (Bc)d|("Dm"fe) dd/(ef3/2)|"B"e d ^c"A"e cA|"Dm"d2 d//<d/ d2 e|
"F"f3/2 f//f//f (fg)f3/2|"C"e3/2 e//e//e (ef)e|"Dm"d3/2 d//d//d (d^c)d|"A"ee ^c A2 e|
"Dm"(fe)f (fg)a|("Gm"ba)g (ga)g|("Dm"f/e)d3/2 e^c"A"A|1 "Dm"d2 d/dd3/2 "A"A:|2 "Dm"d2 A2 ("A"F2|F) "Dm"D4"Dm"D||

